app/[lang]/(home)/(new-home)/assets/ide-icons/jbtoolbox.svg

<svg
  width="64"
  height="64"
  viewBox="0 0 64 64"
  fill="none"
  xmlns="http://www.w3.org/2000/svg"
>
  <g opacity="0.8" clip-path="url(#clip0_33_1292)">
    <path
      d="M52.0007 44.9447L38.3407 52.6067V46.5187L52.0007 38.8567V44.9447Z"
      fill="white"
    />
    <path
      d="M31.9993 64.1501L59.9993 48.1281V16.1121L31.9993 32.1321V64.1501Z"
      fill="#000001"
    />
    <path
      d="M37.8491 49.2811V54.0811L50.0511 47.0991V42.2991L37.8491 49.2811Z"
      fill="white"
    />
    <path
      d="M31.9991 0.153809L3.99908 16.1158V48.1318L31.9991 64.1538V32.1358L59.9991 16.1158L31.9991 0.153809Z"
      fill="url(#paint0_linear_33_1292)"
    />
  </g>
  <defs>
    <linearGradient
      id="paint0_linear_33_1292"
      x1="4.35908"
      y1="46.5118"
      x2="60.0811"
      y2="17.5658"
      gradientUnits="userSpaceOnUse"
    >
      <stop offset="0.043" stop-color="#FF8618" />
      <stop offset="0.382" stop-color="#FF246E" />
      <stop offset="0.989" stop-color="#AF1DF5" />
    </linearGradient>
    <clipPath id="clip0_33_1292">
      <rect width="64" height="64" fill="white" />
    </clipPath>
  </defs>
</svg>

<svg xmlns="http://www.w3.org/2000/svg" fill="none" viewBox="0 0 64 64">
  <g clip-path="url(#a)" opacity=".8">
    <path fill="#fff" d="m52 44.94-13.66 7.67v-6.1L52 38.87v6.08Z" />
    <path fill="#000001" d="m32 64.15 28-16.02V16.1L32 32.13v32.02Z" />
    <path fill="#fff" d="M37.85 49.28v4.8l12.2-6.98v-4.8l-12.2 6.98Z" />
    <path
      fill="url(#b)"
      d="M32 .15 4 16.12v32.01l28 16.02V32.14l28-16.02L32 .15Z"
    />
  </g>
  <defs>
    <linearGradient
      id="b"
      x1="4.36"
      x2="60.08"
      y1="46.51"
      y2="17.57"
      gradientUnits="userSpaceOnUse"
    >
      <stop offset=".04" stop-color="#FF8618" />
      <stop offset=".38" stop-color="#FF246E" />
      <stop offset=".99" stop-color="#AF1DF5" />
    </linearGradient>
    <clipPath id="a"><path fill="#fff" d="M0 0h64v64H0z" /></clipPath>
  </defs>
</svg>
